X:45
T:Jigs simple chords 90
M:3/4
L:1/8
K:A
c/d/[eA,CE] fe dc | B[A2A,2C2E2]c E2 | c[cA,CE] ^Bc ed | c2<[B2E,2G,2B,2D2] Bc | d[eA,CE] fe dc |
B[A2A,2C2E2]c Ee | f[gE,G,B,D] fe dc | B2<[A2A,2C2E2] A2 | c/d/[eA,CE] fe dc |
B[A2A,2C2E2]c E2 | c[cA,CE] ^Bc ed | c2<[B2E,2G,2B,2D2] Bc | d[eA,CE] fe dc |
B[A2A,2C2E2]c Ee | f[gE,G,B,D] fe dc | B2<[A2A,2C2E2] A2 | c/d/[e2A,2C2E2]c a2 |
g[f2D,2F,2A,2]d b2 | a[g2E,2G,2B,2D2]B Bd | f2<[e2A,2C2E2] ec | d[e2A,2C2E2]c a2 |
g[f2D,2F,2A,2]d b2 | a[gE,G,B,D] fe dc | B2<[A2A,2C2E2] A2 | c/d/[e2A,2C2E2]c a2 |
g[f2D,2F,2A,2]d b2 | a[g2E,2G,2B,2D2]B Bd | f2<[e2A,2C2E2] ec | d[e2A,2C2E2]c a2 |
g[f2D,2F,2A,2]d b2 | a[gE,G,B,D] fe dc | B2<[A2A,2C2E2] A2 |


